X: 1
T: Brian O'Lynn
R: jig
M: 6/8
L: 1/8
K: Ador
B|:cAd cAG|EGG GAB|cBc BAG|EAA ~A2B|
cAd cAG|EGG GAB|cde ged|1 cAA A2B:|2 cAA A2f||
gea ged|cAB cde|eaa age|ed^c def|
gea ged|cAB cde|ged cAG|1 EAA A2f:|2 EAA A2||

